X:18062
T:Up in the Morning Early
S:Gall and Inglis, Select Songs of Scotland
M:6/4
L:1/4
K:Gdor
D|G2A  B2c|d>ef F2F   |G>AG d2c/A/|G3 d2
D|G2A  B2c|d>ef F2F   |G>AG d2c/A/|G3 d2||
K:Gmin
B|B>cB B2B|c>dc c2z   |d>ed f2e   |d3 f2
B|B>cB B<BB|cdf g2f/e/|d>cB A>G^F |G3 d2|]


